assets/Woman raising hand/Medium/Flat/woman_raising_hand_flat_medium.svg

<svg width="32" height="32" viewBox="0 0 32 32" fill="none" xmlns="http://www.w3.org/2000/svg">
<path d="M28.4924 14.2008C28.4924 14.8073 28.3609 15.3895 28.1097 15.9111C28.026 16.0809 28.026 16.2871 28.1097 16.4569C28.3489 16.9663 28.4924 17.5364 28.4924 18.1429C28.4924 20.2776 26.794 22 24.6889 22H14.546C12.4409 22 10.7424 20.2776 10.7424 18.1429C10.7424 17.5364 10.886 16.9663 11.1252 16.4569C11.2089 16.2871 11.2089 16.0809 11.1252 15.9111C10.886 15.3895 10.7424 14.8194 10.7424 14.2008C10.7424 13.39 10.9805 12.6517 11.3855 12.0219L11.3882 12.0175C11.7949 11.3868 12.0102 10.6469 12.0102 9.89488V9.88275C12.0102 7.73353 13.7024 5.98395 15.8089 5.92986C15.8423 5.929 15.8758 5.92857 15.9094 5.92857C16.1247 5.92857 16.3281 5.81941 16.4477 5.6496C17.1534 4.65499 18.3136 4 19.6173 4C20.921 4 22.0814 4.65499 22.7871 5.6496C22.9067 5.83154 23.11 5.92857 23.3253 5.92857C25.4783 5.92857 27.2246 7.69946 27.2246 9.88275V9.89488C27.2246 10.6469 27.4399 11.3868 27.8465 12.0175L27.849 12.0213C27.9794 12.2142 28.0863 12.4192 28.1813 12.6361H28.175C28.3788 13.1152 28.4924 13.6407 28.4924 14.2008Z" fill="#593B39"/>
<path d="M9.46733 10.9583C9.74256 10.3875 10.0842 9.86266 10.5113 9.3839C11.1377 8.70258 11.7071 8.21461 11.7166 8.20541C12.0583 7.91999 12.0962 7.41361 11.802 7.07295C11.5078 6.7415 10.9858 6.70467 10.6442 6.99009C10.6157 7.01771 10.2645 7.31233 9.80899 7.76347C9.74256 7.82792 9.62867 7.78189 9.63816 7.69902C9.79001 6.18908 9.92288 5.07504 10.0273 4.28324C10.0747 3.88734 9.89441 3.49144 9.49581 3.39016C9.0972 3.28889 8.68911 3.51906 8.57522 3.90575C8.57522 3.94258 8.4993 4.78042 8.32846 5.79318C8.30948 5.90366 8.2905 6.02336 8.28101 6.13384C8.27152 6.16146 8.24305 6.18908 8.20509 6.17987C8.17661 6.17067 8.15763 6.14305 8.16712 6.12463C8.26203 4.69755 8.37592 3.39937 8.37592 3.37175C8.45184 2.97585 8.1956 2.58916 7.7875 2.5155C7.37941 2.43264 6.9808 2.69043 6.90488 3.08633C6.8859 3.14158 6.81946 4.50421 6.69608 5.6827C6.69608 5.71032 6.64863 5.71032 6.64863 5.6827L6.60118 3.87813C6.57271 3.47303 6.23105 3.1692 5.82295 3.18761C5.39588 3.20602 5.0732 3.5651 5.10167 3.9702L5.22504 5.95891C5.22504 6.01415 5.13963 6.02336 5.13963 5.96811C5.05421 5.38807 4.99727 4.98297 4.99727 4.97376C4.94033 4.57786 4.5607 4.29245 4.14312 4.34769C3.73502 4.40293 3.45031 4.77121 3.50725 5.16711C3.754 6.92564 4.15261 9.79821 4.18108 10.1665C4.18108 10.1849 4.18108 10.1941 4.19057 10.2033C4.27599 10.7926 4.57019 11.3542 5.05421 11.7869C6.1741 12.7905 7.93935 12.726 8.98331 11.6488C9.18262 11.4463 9.34396 11.2069 9.46733 10.9583Z" fill="#C68D7B"/>
<path d="M9 14H5V12.4217C5 12.1807 5.15385 12 5.33654 12H8.65385C8.84615 12 8.99038 12.1928 8.99038 12.4217V14H9Z" fill="#774AA6"/>
<path d="M21.5 21C24 21 29 24.5 29 30H11V26.5C11 26.2233 10.8299 25.9672 10.5843 25.8749L7.5 24.5C5 23.5 4 21 4 19.302V14.0145C4 13.4509 4.42517 13 4.93537 13L9.06463 13C9.58428 13 10 13.4611 10 14.0145V18C10 19.302 11 19.5 11 19.5L17 21H21.5Z" fill="#8B62BF"/>
<path d="M19.5 24C18.1197 24 17 23.0146 17 21.7998V19.2002C17 17.9854 18.1197 17 19.5 17C20.8803 17 22 17.9854 22 19.2002V21.7998C22 23.0146 20.8803 24 19.5 24Z" fill="#B87A66"/>
<path d="M15.75 14.2475C15.75 15.3506 14.8546 16.2449 13.75 16.2449C12.6454 16.2449 11.75 15.3506 11.75 14.2475C11.75 13.1443 12.6454 12.25 13.75 12.25C14.8546 12.25 15.75 13.1443 15.75 14.2475Z" fill="#BB806E"/>
<path d="M27 14.2475C27 15.3506 26.1046 16.2449 25 16.2449C23.8954 16.2449 23 15.3506 23 14.2475C23 13.1443 23.8954 12.25 25 12.25C26.1046 12.25 27 13.1443 27 14.2475Z" fill="#BB806E"/>
<path d="M13.5761 12.5739H13.5892L13.5771 12.241L13.5651 11.8568C13.5892 10.6658 14.2411 10.2048 14.5188 10.0511C14.5369 10.0447 14.558 10.0351 14.5791 10.0255C14.6003 10.0159 14.6214 10.0063 14.6395 9.99989C15.2673 9.69255 15.7743 9.15468 16.0399 8.45034L16.1365 8.20702C16.2331 7.96371 16.5349 7.92529 16.6798 8.14299C17.5248 9.46203 18.9373 10.2432 20.4343 10.2432H24.225C24.4423 10.2432 25.553 10.3585 25.5651 12.0361L25.553 12.5739L25.4398 15.5367C25.2945 19.0353 22.7143 21.3846 19.5648 21.3846C16.4153 21.3846 13.8352 19.0353 13.6898 15.5367L13.5761 12.5739Z" fill="#C68D7B"/>
<path d="M16.3282 12.5C17.0082 12.5 17.5582 12.97 17.9082 13.5C17.5746 13.6045 17.2508 13.6977 16.9301 13.7899C16.4528 13.9272 15.9827 14.0625 15.4982 14.23L14.9182 13.71C14.6782 13.49 14.6982 13.11 14.9582 12.92C15.3382 12.65 15.8482 12.5 16.3282 12.5Z" fill="black"/>
<path d="M22.6382 12.5C21.9582 12.5 21.4082 12.97 21.0582 13.5C21.3918 13.6045 21.7156 13.6977 22.0363 13.7899C22.5136 13.9272 22.9837 14.0625 23.4682 14.23L24.0482 13.71C24.2882 13.49 24.2682 13.11 24.0082 12.92C23.6282 12.65 23.1182 12.5 22.6382 12.5Z" fill="black"/>
<path d="M14.9081 13.89C15.0881 13.16 15.7481 12.62 16.5381 12.62C17.3581 12.62 18.0381 13.21 18.1981 13.97C18.2281 14.14 18.0881 14.3 17.9181 14.3H15.2281C15.0181 14.3 14.8581 14.1 14.9081 13.89Z" fill="white"/>
<path d="M24.0582 13.89C23.8782 13.16 23.2182 12.62 22.4282 12.62C21.6082 12.62 20.9282 13.21 20.7682 13.97C20.7382 14.14 20.8782 14.3 21.0482 14.3H23.7382C23.9482 14.3 24.1082 14.1 24.0582 13.89Z" fill="white"/>
<path d="M15.7081 14.02C15.7081 13.42 16.1881 12.94 16.7881 12.94C17.3781 12.94 17.8681 13.43 17.8681 14.02C17.8681 14.12 17.8581 14.22 17.8281 14.31H15.7481C15.7181 14.21 15.7081 14.12 15.7081 14.02Z" fill="#7D4533"/>
<path d="M23.2583 14.02C23.2583 13.42 22.7783 12.94 22.1783 12.94C21.5883 12.94 21.0983 13.43 21.0983 14.02C21.0983 14.12 21.1083 14.22 21.1383 14.31H23.2183C23.2483 14.21 23.2583 14.12 23.2583 14.02Z" fill="#7D4533"/>
<path d="M16.7782 13.4C17.1182 13.4 17.3982 13.68 17.3982 14.02C17.3982 14.13 17.3782 14.22 17.3182 14.31H16.2282C16.1882 14.22 16.1582 14.12 16.1582 14.02C16.1582 13.68 16.4382 13.4 16.7782 13.4Z" fill="black"/>
<path d="M22.1782 13.4C21.8382 13.4 21.5582 13.68 21.5582 14.02C21.5582 14.13 21.5882 14.22 21.6382 14.31H22.7282C22.7682 14.22 22.7982 14.12 22.7982 14.02C22.7982 13.68 22.5182 13.4 22.1782 13.4Z" fill="black"/>
<path d="M16.6081 13.6C16.6081 13.7049 16.5231 13.79 16.4181 13.79C16.3132 13.79 16.2281 13.7049 16.2281 13.6C16.2281 13.495 16.3132 13.41 16.4181 13.41C16.5231 13.41 16.6081 13.495 16.6081 13.6Z" fill="white"/>
<path d="M22.0082 13.6C22.0082 13.7049 21.9231 13.79 21.8182 13.79C21.7132 13.79 21.6282 13.7049 21.6282 13.6C21.6282 13.495 21.7132 13.41 21.8182 13.41C21.9231 13.41 22.0082 13.495 22.0082 13.6Z" fill="white"/>
<path d="M19.5 17.834C18.8664 17.834 18.2731 17.6788 17.7803 17.4098C17.6093 17.3167 17.4283 17.5133 17.5289 17.6788C17.9513 18.3409 18.6754 18.7858 19.5 18.7858C20.3247 18.7858 21.0487 18.3513 21.4711 17.6788C21.5717 17.5133 21.3907 17.3167 21.2197 17.4098C20.7169 17.6788 20.1336 17.834 19.5 17.834Z" fill="#990838"/>
<path d="M19.14 13.909L18.53 15.889C18.4 16.299 18.71 16.709 19.13 16.709H20.04C20.46 16.709 20.77 16.299 20.64 15.889L20.03 13.909C19.9 13.479 19.28 13.479 19.14 13.909Z" fill="#AB6A55"/>
<path d="M15.0444 11.639C15.1044 11.739 15.2144 11.799 15.3244 11.799C15.3744 11.799 15.4344 11.789 15.4744 11.759C15.4844 11.749 16.3644 11.259 17.3344 11.439C17.5144 11.469 17.6844 11.359 17.7144 11.179C17.7444 10.999 17.6344 10.829 17.4544 10.799C16.2544 10.579 15.2044 11.169 15.1644 11.199C15.0044 11.289 14.9544 11.479 15.0444 11.639Z" fill="#593B39"/>
<path d="M23.2449 12.009C23.2949 12.039 23.3549 12.049 23.4049 12.049C23.5149 12.049 23.6249 11.989 23.6749 11.889C23.7649 11.739 23.7149 11.539 23.5549 11.449C23.5149 11.419 22.4749 10.829 21.2649 11.049C21.0849 11.079 20.9749 11.249 21.0049 11.429C21.0349 11.609 21.2049 11.719 21.3849 11.689C22.3549 11.509 23.2349 11.999 23.2449 12.009Z" fill="#593B39"/>
</svg>

<svg xmlns="http://www.w3.org/2000/svg" width="32" height="32" fill="none"><path fill="#593B39" d="M28.492 14.2c0 .607-.131 1.19-.382 1.711a.625.625 0 0 0 0 .546c.239.51.382 1.08.382 1.686 0 2.135-1.698 3.857-3.803 3.857H14.546c-2.105 0-3.804-1.722-3.804-3.857 0-.607.144-1.177.383-1.686a.625.625 0 0 0 0-.546 4.068 4.068 0 0 1-.383-1.71c0-.811.238-1.55.643-2.18l.003-.004c.407-.63.622-1.37.622-2.122v-.012c0-2.15 1.692-3.899 3.799-3.953l.1-.001c.216 0 .42-.11.539-.28A3.89 3.89 0 0 1 19.618 4a3.89 3.89 0 0 1 3.17 1.65c.119.182.322.279.537.279 2.153 0 3.9 1.77 3.9 3.954v.012c0 .752.215 1.492.621 2.123l.003.003c.13.193.237.398.332.615h-.006c.204.48.317 1.005.317 1.565Z"/><path fill="#C68D7B" d="M9.467 10.958a6.737 6.737 0 0 1 1.044-1.574c.627-.681 1.196-1.17 1.206-1.179a.793.793 0 0 0 .085-1.132.842.842 0 0 0-1.158-.083c-.028.028-.38.322-.835.773-.066.065-.18.019-.17-.064.151-1.51.284-2.624.388-3.416.048-.396-.133-.792-.531-.893a.763.763 0 0 0-.92.516c0 .037-.077.874-.248 1.887-.019.11-.037.23-.047.34-.01.028-.038.056-.076.047-.028-.01-.047-.037-.038-.055.095-1.427.209-2.726.209-2.753a.728.728 0 0 0-.588-.857.741.741 0 0 0-.883.571c-.02.056-.086 1.418-.209 2.597 0 .027-.047.027-.047 0L6.6 3.878a.741.741 0 0 0-.778-.69.744.744 0 0 0-.721.782l.123 1.989c0 .055-.085.064-.085.01-.086-.58-.143-.986-.143-.995a.756.756 0 0 0-.854-.626.73.73 0 0 0-.636.82c.247 1.758.646 4.63.674 4.998 0 .019 0 .028.01.037.085.59.38 1.151.863 1.584 1.12 1.003 2.885.939 3.93-.138.199-.203.36-.442.483-.69Z"/><path fill="#774AA6" d="M9 14H5v-1.578c0-.241.154-.422.337-.422h3.317c.192 0 .336.193.336.422V14H9Z"/><path fill="#8B62BF" d="M21.5 21c2.5 0 7.5 3.5 7.5 9H11v-3.5a.67.67 0 0 0-.416-.625L7.5 24.5C5 23.5 4 21 4 19.302v-5.287C4 13.45 4.425 13 4.935 13h4.13c.52 0 .935.461.935 1.014V18c0 1.302 1 1.5 1 1.5l6 1.5h4.5Z"/><path fill="#B87A66" d="M19.5 24c-1.38 0-2.5-.985-2.5-2.2v-2.6c0-1.215 1.12-2.2 2.5-2.2s2.5.985 2.5 2.2v2.6c0 1.215-1.12 2.2-2.5 2.2Z"/><path fill="#BB806E" d="M15.75 14.248a1.999 1.999 0 0 1-2 1.997 1.999 1.999 0 1 1 0-3.995c1.105 0 2 .894 2 1.998ZM27 14.248a1.999 1.999 0 0 1-2 1.997 1.999 1.999 0 1 1 0-3.995c1.105 0 2 .894 2 1.998Z"/><path fill="#C68D7B" d="M13.576 12.574h.013l-.012-.333-.012-.384c.024-1.191.676-1.652.954-1.806.018-.006.039-.016.06-.026.021-.01.042-.019.06-.025a2.818 2.818 0 0 0 1.4-1.55l.098-.243c.096-.243.398-.282.543-.064.845 1.319 2.257 2.1 3.754 2.1h3.791c.217 0 1.328.115 1.34 1.793l-.012.538-.113 2.963c-.146 3.498-2.726 5.848-5.875 5.848-3.15 0-5.73-2.35-5.875-5.848l-.114-2.963Z"/><path fill="#000" d="M16.328 12.5c.68 0 1.23.47 1.58 1-.333.104-.657.198-.978.29-.477.137-.947.273-1.432.44l-.58-.52a.51.51 0 0 1 .04-.79c.38-.27.89-.42 1.37-.42ZM22.638 12.5c-.68 0-1.23.47-1.58 1 .334.104.658.198.978.29.478.137.948.273 1.432.44l.58-.52a.51.51 0 0 0-.04-.79c-.38-.27-.89-.42-1.37-.42Z"/><path fill="#fff" d="M14.908 13.89c.18-.73.84-1.27 1.63-1.27.82 0 1.5.59 1.66 1.35.03.17-.11.33-.28.33h-2.69c-.21 0-.37-.2-.32-.41ZM24.058 13.89c-.18-.73-.84-1.27-1.63-1.27-.82 0-1.5.59-1.66 1.35-.03.17.11.33.28.33h2.69c.21 0 .37-.2.32-.41Z"/><path fill="#7D4533" d="M15.708 14.02c0-.6.48-1.08 1.08-1.08.59 0 1.08.49 1.08 1.08 0 .1-.01.2-.04.29h-2.08a.967.967 0 0 1-.04-.29ZM23.258 14.02c0-.6-.48-1.08-1.08-1.08-.59 0-1.08.49-1.08 1.08 0 .1.01.2.04.29h2.08c.03-.1.04-.19.04-.29Z"/><path fill="#000" d="M16.778 13.4c.34 0 .62.28.62.62 0 .11-.02.2-.08.29h-1.09a.727.727 0 0 1-.07-.29c0-.34.28-.62.62-.62ZM22.178 13.4c-.34 0-.62.28-.62.62 0 .11.03.2.08.29h1.09c.04-.09.07-.19.07-.29 0-.34-.28-.62-.62-.62Z"/><path fill="#fff" d="M16.608 13.6a.19.19 0 1 1-.38 0 .19.19 0 0 1 .38 0ZM22.008 13.6a.19.19 0 1 1-.38 0 .19.19 0 0 1 .38 0Z"/><path fill="#990838" d="M19.5 17.834a3.598 3.598 0 0 1-1.72-.424c-.17-.093-.352.103-.251.269.422.662 1.146 1.107 1.971 1.107.825 0 1.549-.435 1.971-1.107.1-.166-.08-.362-.251-.27a3.628 3.628 0 0 1-1.72.425Z"/><path fill="#AB6A55" d="m19.14 13.909-.61 1.98c-.13.41.18.82.6.82h.91c.42 0 .73-.41.6-.82l-.61-1.98c-.13-.43-.75-.43-.89 0Z"/><path fill="#593B39" d="M15.044 11.639c.06.1.17.16.28.16.05 0 .11-.01.15-.04.01-.01.89-.5 1.86-.32.18.03.35-.08.38-.26a.322.322 0 0 0-.26-.38c-1.2-.22-2.25.37-2.29.4-.16.09-.21.28-.12.44ZM23.245 12.009c.05.03.11.04.16.04.11 0 .22-.06.27-.16.09-.15.04-.35-.12-.44-.04-.03-1.08-.62-2.29-.4-.18.03-.29.2-.26.38.03.18.2.29.38.26.97-.18 1.85.31 1.86.32Z"/></svg>
